svg/u262f.svg

<svg viewBox="0 0 128 128" xmlns="http://www.w3.org/2000/svg">
  <g>
    <path d="M116.46,3.96h-104c-4.42,0-8,3.58-8,8v104c0,4.42,3.58,8,8,8h104c4.42,0,8-3.58,8-8v-104 C124.46,7.54,120.88,3.96,116.46,3.96z" fill="#8E24AA"/>
    <path d="M110.16,3.96h-98.2c-4.13,0.03-7.47,3.37-7.5,7.5v97.9c-0.01,4.14,3.34,7.49,7.48,7.5 c0.01,0,0.01,0,0.02,0h98.1c4.14,0.01,7.49-3.34,7.5-7.48c0-0.01,0-0.01,0-0.02v-97.9c0.09-4.05-3.13-7.41-7.18-7.5 C110.31,3.96,110.23,3.96,110.16,3.96z" fill="#AB47BC"/>
    <path d="M40.16,12.86c0-2.3-1.6-3-10.8-2.7c-7.7,0.3-11.5,1.2-13.8,4 s-2.9,8.5-3,15.3c0,4.8,0,9.3,2.5,9.3c3.4,0,3.4-7.9,6.2-12.3C26.66,17.76,40.16,15.86,40.16,12.86z" opacity="0.3" fill="#FAFAFA" enable-background="new "/>
    <path d="M64.46,15.96c-26.51,0-48,21.49-48,48s21.49,48,48,48s48-21.49,48-48S90.97,15.96,64.46,15.96z M64.46,32.46c4.14,0,7.5,3.36,7.5,7.5s-3.36,7.5-7.5,7.5s-7.5-3.36-7.5-7.5C56.99,35.83,60.33,32.49,64.46,32.46z M68.06,105.76 c-4.15,0.39-8.34,0.12-12.4-0.8c-4.12-0.82-7.83-3.05-10.5-6.3c-2.27-2.78-3.6-6.21-3.8-9.8v-1.2c0.03-13.01,10.49-23.6,23.5-23.8 l0,0c13.17-0.19,23.68-11.02,23.49-24.18c-0.07-4.52-1.42-8.94-3.89-12.72l0,0c20.41,11.03,28.01,36.51,16.99,56.92 C94.72,96.33,82.16,104.56,68.06,105.76z" fill="#FAFAFA"/>
    <circle cx="64.46" cy="84.96" r="6" fill="#FAFAFA"/>
  </g>
</svg>

<svg viewBox="0 0 128 128" xmlns="http://www.w3.org/2000/svg">
  <defs/>
  <path d="M116.46,3.96 L12.46,3.96 C8.04,3.96 4.46,7.54 4.46,11.96 L4.46,115.96 C4.46,120.38 8.04,123.96 12.46,123.96 L116.46,123.96 C120.88,123.96 124.46,120.38 124.46,115.96 L124.46,11.96 C124.46,7.54 120.88,3.96 116.46,3.96 Z" fill="#8E24AA"/>
  <path d="M110.16,3.96 L11.96,3.96 C7.83,3.99 4.49,7.33 4.46,11.46 L4.46,109.36 C4.45,113.5 7.8,116.85 11.94,116.86 C11.95,116.86 11.95,116.86 11.96,116.86 L110.06,116.86 C114.2,116.87 117.55,113.52 117.56,109.38 C117.56,109.37 117.56,109.37 117.56,109.36 L117.56,11.46 C117.65,7.41 114.43,4.05 110.38,3.96 C110.31,3.96 110.23,3.96 110.16,3.96 Z" fill="#AB47BC"/>
  <path d="M40.16,12.86 C40.16,10.56 38.56,9.86 29.36,10.16 C21.66,10.46 17.86,11.36 15.56,14.16 C13.26,16.96 12.66,22.66 12.56,29.46 C12.56,34.26 12.56,38.76 15.06,38.76 C18.46,38.76 18.46,30.86 21.26,26.46 C26.66,17.76 40.16,15.86 40.16,12.86 Z" fill="#FAFAFA" opacity="0.3"/>
  <path d="M64.46,15.96 C37.95,15.96 16.46,37.45 16.46,63.96 C16.46,90.47 37.95,111.96 64.46,111.96 C90.97,111.96 112.46,90.47 112.46,63.96 C112.46,37.45 90.97,15.96 64.46,15.96 Z M64.46,32.46 C68.6,32.46 71.96,35.82 71.96,39.96 C71.96,44.1 68.6,47.46 64.46,47.46 C60.32,47.46 56.96,44.1 56.96,39.96 C56.99,35.83 60.33,32.49 64.46,32.46 Z M68.06,105.76 C63.91,106.15 59.72,105.88 55.66,104.96 C51.54,104.14 47.83,101.91 45.16,98.66 C42.89,95.88 41.56,92.45 41.36,88.86 L41.36,87.66 C41.39,74.65 51.85,64.06 64.86,63.86 L64.86,63.86 C78.03,63.67 88.54,52.84 88.35,39.68 C88.28,35.16 86.93,30.74 84.46,26.96 L84.46,26.96 C104.87,37.99 112.47,63.47 101.45,83.88 C94.72,96.33 82.16,104.56 68.06,105.76 Z" fill="#FAFAFA"/>
  <path d="M70.46,84.96 A6 6 0 1 1 58.46,84.96 A6 6 0 1 1 70.46,84.96 Z" fill="#FAFAFA"/>
</svg>
